anadea-new/source/img/icon-fb.svg

<svg width="8" height="16" viewBox="0 0 8 16" fill="none" xmlns="http://www.w3.org/2000/svg">
<path d="M4.99278 15.8397H2.00304V7.91983H0.00854492V5.19043L2.00304 5.18953L1.9998 3.58156C1.9998 1.35485 2.60802 0 5.2502 0H7.45V2.72993H6.0752C5.04629 2.72993 4.9968 3.11132 4.9968 3.8233L4.99272 5.18953H7.46545L7.17395 7.91893L4.99478 7.91983L4.99278 15.8397Z" fill="#82919A"/>
</svg>

<svg width="8" height="16" fill="none" xmlns="http://www.w3.org/2000/svg"><path d="M4.993 15.84h-2.99V7.92H.009V5.19h1.994L2 3.582C2 1.355 2.608 0 5.25 0h2.2v2.73H6.075c-1.029 0-1.078.381-1.078 1.093L4.993 5.19h2.472l-.291 2.729h-2.18l-.001 7.92z" fill="#82919A"/></svg>
